X: 4
T: The Boys Of Ballinahinch
R: reel
M: 4/4
L: 1/8
K: Dmaj
fd ~d2 eB ~B2 | d2 Ad faag | fd ~d2 ABdB | AFdF ~E2 D2 |
d3 f eB ~B2 | dfeg faag | f2 dB ABdB | AFDF ~E2 D2 ||
~a3 b afdf | afdf afdf | a3 b afdf | gfed Bcdf |
a3 b afdf | abaf gfga | b/a/g a/g/f gfef | g2 fa gbag |]


Tune 1348	Setting 14697

